!!! OTL: Berkowitz371
!!! Chapter: 1
!!! Section: III
!!! Page: 91
!!! Mode: 
!!! Encoder: DJB
**kern
*staff1
*I"Piano
=1-
*clefG2
*k[b-e-a-]
*E-:
*M4/4
4r
4r
4r
8r
8B-/
=2
8g/L
8b-/J
8r
8g/
8f/L
8b-/J
8r
8f/
=3
8en/L
8f/
8g/
8a-/J
4cc\
8b-\L
8b-\J
=4
8an/L
8f/J
8r
8ee-\
8dd/L
8b-/
8g/
8e-/J
=5
4d/
4c/
4B-/
8r
8B-/
=6
8a-/L
8f/J
8r
8b-\
8g/L
8e-/J
8r
8e-/
=7
!!linebreak:original
8dd-\L
8b-\J
8r
8ee-\
8cc\L
8a-\J
8r
8an/
=8
8b-/L
8bn/
8cc/
8g/J
8a-/L
8an/
8b-/
8en/J
=9
8f/L
8g/
8a-/
8d/J
4.e-/
8r
==
*-
